src/images/mahasiswa/mahasiswa-female-1.svg

<svg width="120" height="120" viewBox="0 0 120 120" fill="none" xmlns="http://www.w3.org/2000/svg">
<path d="M120 59.9995C120 93.1369 93.1377 120 60 120C26.8623 120 0 93.1369 0 59.9995C0 26.8631 26.8623 0 60 0C93.1377 0 120 26.8631 120 59.9995Z" fill="#4E6DBE"/>
<path d="M73.3008 78.1989C73.309 78.2275 73.3152 78.2561 73.3233 78.2848C73.2773 78.2633 73.2232 78.2388 73.1782 78.2193C73.217 78.2132 73.261 78.205 73.3008 78.1989ZM60 119.999C76.3338 119.999 91.1348 113.464 101.953 102.876C101.02 97.1752 99.7033 92.308 97.7873 89.8074C95.7026 87.0831 86.8286 84.2229 80.8434 82.3886C79.4373 81.3729 77.7174 80.4144 76.1345 79.6163C80.3089 79.8748 84.5784 78.5607 87.8484 75.9201C86.3789 76.0857 84.8584 75.7546 83.5861 74.9943C84.096 74.8513 84.607 74.7082 85.1169 74.5661C81.6088 73.8518 78.5697 71.2185 77.277 67.8555C78.4195 66.2113 79.9032 64.8256 81.387 63.4737C81.4003 63.7087 81.4146 63.9437 81.4279 64.1788C83.069 62.1054 84.7357 59.9891 85.6698 57.5151C87.035 53.8967 86.6518 49.662 84.6571 46.3481C85.0024 46.4707 85.3478 46.5923 85.6922 46.7139C82.4682 43.1118 80.3559 38.5287 79.7111 33.7381C79.3443 31.0107 79.4158 28.13 78.165 25.6786C76.6833 22.7734 73.3019 21.0106 70.0747 21.3008C70.3363 21.0402 70.5918 20.7746 70.8718 20.5354C69.9123 20.702 68.9844 21.0505 68.1536 21.5583C68.3927 20.9851 68.7167 20.4476 69.1111 19.9683C68.4408 20.3362 67.8317 20.8154 67.3177 21.3816C67.6713 20.1972 68.1792 19.0578 68.825 18.0032C67.6232 18.8994 66.6136 20.046 65.8564 21.3386C62.6947 18.0819 58.1197 16.2098 53.5774 16.4071C48.4282 16.6298 43.4659 19.5013 40.7057 23.8524C41.277 23.7441 41.8472 23.6358 42.4174 23.5275C37.4326 29.1356 34.6613 36.6596 34.8176 44.1612C35.1886 43.6789 35.5595 43.1966 35.9294 42.7142C37.5236 48.3039 36.6591 54.5486 33.6057 59.4945C34.5152 59.4219 35.4257 59.3494 36.3351 59.2758C36.6294 62.2066 37.7382 65.0494 39.506 67.4059C39.5602 66.5393 39.6144 65.6738 39.6685 64.8082C40.5034 67.2332 41.743 69.5089 43.285 71.5588C41.792 73.0803 39.875 74.1911 37.7821 74.6132C38.2931 74.7542 38.803 74.8962 39.3139 75.0372C38.0407 75.7914 36.5201 76.1184 35.0506 75.9549C37.5941 77.9905 40.7446 79.228 43.984 79.559C42.3673 80.3694 40.6005 81.3453 39.1566 82.3886C33.1714 84.2229 24.2973 87.0831 22.2117 89.8074C20.2966 92.308 18.9794 97.1752 18.0464 102.877C28.8652 113.464 43.6661 119.999 60 119.999Z" fill="#233C70"/>
</svg>

<?xml version="1.0" encoding="UTF-8" standalone="no"?>
<svg width="120" xmlns="http://www.w3.org/2000/svg" viewBox="0 0 120 120" height="120">
 <path d="m120 60c0 33.137-26.862 60-60 60s-60-26.863-60-60 26.862-60 60-60 60 26.863 60 60z" fill="#4E6DBE"/>
 <path d="m73.301 78.199c0.008 0.029 0.014 0.057 0.022 0.086-0.046-0.022-0.1-0.046-0.145-0.066 0.039-0.006 0.083-0.014 0.123-0.02zm-13.301 41.801c16.334 0 31.135-6.54 41.95-17.12-0.93-5.705-2.247-10.572-4.163-13.073-2.084-2.724-10.958-5.584-16.944-7.418-1.406-1.016-3.126-1.975-4.709-2.773 4.175 0.259 8.444-1.055 11.714-3.696-1.469 0.166-2.99-0.165-4.262-0.926 0.51-0.143 1.021-0.286 1.531-0.428-3.508-0.714-6.547-3.348-7.84-6.71 1.143-1.645 2.626-3.03 4.11-4.382 0.013 0.235 0.028 0.47 0.041 0.705 1.641-2.074 3.308-4.19 4.242-6.664 1.365-3.618 0.982-7.853-1.013-11.167 0.345 0.123 0.691 0.244 1.035 0.366-3.224-3.602-5.336-8.185-5.981-12.976-0.367-2.727-0.295-5.608-1.546-8.059-1.482-2.906-4.863-4.668-8.09-4.378 0.261-0.261 0.517-0.526 0.797-0.766-0.96 0.167-1.888 0.515-2.718 1.023 0.239-0.573 0.563-1.11 0.957-1.59-0.67 0.368-1.279 0.847-1.793 1.414 0.353-1.185 0.861-2.324 1.507-3.379-1.202 0.896-2.211 2.043-2.969 3.336-3.161-3.257-7.736-5.129-12.279-4.932-5.149 0.223-10.111 3.094-12.871 7.445 0.571-0.108 1.141-0.216 1.711-0.324-4.984 5.608-7.756 13.132-7.599 20.633 0.371-0.482 0.742-0.964 1.111-1.447 1.595 5.59 0.73 11.835-2.323 16.78 0.909-0.072 1.82-0.145 2.729-0.218 0.294 2.931 1.403 5.773 3.171 8.13 0.054-0.867 0.108-1.732 0.162-2.598 0.835 2.425 2.075 4.701 3.617 6.751-1.493 1.521-3.41 2.632-5.503 3.054 0.511 0.141 1.021 0.283 1.532 0.424-1.273 0.754-2.794 1.081-4.263 0.918 2.543 2.035 5.694 3.273 8.933 3.604-1.617 0.81-3.384 1.786-4.827 2.83-5.986 1.834-14.86 4.694-16.945 7.418-1.915 2.501-3.233 7.368-4.166 13.073 10.819 10.58 25.62 17.12 41.954 17.12z" fill="#233C70"/>
</svg>
